src/assets/svg/icons/fa/nuevos/classic/thin/cloud-minus classic thin.svg

<svg xmlns="http://www.w3.org/2000/svg" viewBox="0 0 640 512"><!--! Font Awesome Pro 6.4.0 by @fontawesome - https://fontawesome.com License - https://fontawesome.com/license (Commercial License) Copyright 2023 Fonticons, Inc. --><path d="M522.7 220.8c3.4-8.9 5.3-18.6 5.3-28.8c0-44.2-35.8-80-80-80c-16.5 0-31.7 5-44.4 13.5c-3.7 2.5-8.2 3.3-12.5 2.3s-8-3.8-10.2-7.6C355.9 77 309.3 48 256 48c-79.5 0-144 64.5-144 144c0 2.5 .1 4.9 .2 7.3c.4 7.1-4 13.5-10.7 15.9C51.7 232.7 16 280.2 16 336c0 70.7 57.3 128 128 128H512c61.9 0 112-50.1 112-112c0-54.2-38.5-99.4-89.6-109.8c-4.6-.9-8.6-3.9-10.9-8s-2.6-9.1-.9-13.4zM256 32c53.6 0 101 26.3 130 66.7c3.1 4.3 6 8.8 8.7 13.4c3.5-2.4 7.2-4.5 11-6.4C418.5 99.5 432.8 96 448 96c53 0 96 43 96 96c0 6.6-.7 13-1.9 19.2c-1.1 5.3-2.6 10.5-4.5 15.4c5.3 1.1 10.5 2.5 15.5 4.2C603.6 247.9 640 295.7 640 352c0 70.7-57.3 128-128 128H144C64.5 480 0 415.5 0 336c0-62.8 40.2-116.2 96.2-135.9c-.1-2.7-.2-5.4-.2-8.1c0-88.4 71.6-160 160-160zM224 280H416c4.4 0 8 3.6 8 8s-3.6 8-8 8H224c-4.4 0-8-3.6-8-8s3.6-8 8-8z"/></svg>

<svg xmlns="http://www.w3.org/2000/svg" viewBox="0 0 640 512"><path d="M416 280C420.4 280 424 283.6 424 288C424 292.4 420.4 296 416 296H224C219.6 296 216 292.4 216 288C216 283.6 219.6 280 224 280H416zM256 32C309.6 32 356.1 58.31 386 98.71C389.1 103 392 107.5 394.7 112.2C398.2 109.8 401.9 107.7 405.7 105.8C418.5 99.52 432.8 96 448 96C501 96 544 138.1 544 192C544 198.6 543.3 204.1 542.1 211.2C541 216.5 539.5 221.6 537.6 226.6C542.9 227.6 548.1 229 553.1 230.7C603.6 247.9 640 295.7 640 352C640 422.7 582.7 480 512 480H144C64.47 480 0 415.5 0 336C0 273.2 40.17 219.8 96.2 200.1C96.07 197.4 96 194.7 96 192C96 103.6 167.6 32 256 32V32zM528 192C528 147.8 492.2 112 448 112C431.5 112 416.3 116.1 403.6 125.5C399.9 127.9 395.4 128.7 391.1 127.7C386.7 126.7 383 123.1 380.8 120.2C355.9 76.99 309.3 48 256 48C176.5 48 112 112.5 112 192C112 194.5 112.1 196.9 112.2 199.3C112.5 206.4 108.2 212.9 101.5 215.2C51.68 232.7 16 280.2 16 336C16 406.7 73.31 464 144 464H512C573.9 464 624 413.9 624 352C624 297.8 585.5 252.6 534.4 242.2C529.8 241.3 525.8 238.4 523.6 234.2C521.3 230.1 520.1 225.2 522.7 220.8C526.1 211.9 528 202.2 528 192V192z"/></svg>
